src/ui/task-fill.svg

<?xml version="1.0" encoding="UTF-8"?><svg xmlns="http://www.w3.org/2000/svg" width="32" height="32" viewBox="0 0 32 32"><defs><style>.uuid-f2555eb2-1b03-4179-9552-c30bd44a3c26{fill:none;}.uuid-c8bca648-1c5c-4514-a8a7-e3f355ba02d8{fill:#151515;}</style></defs><g id="uuid-107f0f1e-4162-48ab-81e6-affbc0f47366"><rect class="uuid-f2555eb2-1b03-4179-9552-c30bd44a3c26" width="32" height="32"/></g><g id="uuid-001fd556-b531-410d-8ade-e86d0ebc2feb"><path class="uuid-c8bca648-1c5c-4514-a8a7-e3f355ba02d8" d="M25.5,6h-2.5v-.5c0-.82715-.67285-1.5-1.5-1.5h-1.62646c-.44531-1.72363-2.01318-3-3.87354-3s-3.42822,1.27637-3.87354,3h-1.62646c-.82715,0-1.5.67285-1.5,1.5v.5h-2.5c-.82715,0-1.5.67285-1.5,1.5v22c0,.82715.67285,1.5,1.5,1.5h19c.82715,0,1.5-.67285,1.5-1.5V7.5c0-.82715-.67285-1.5-1.5-1.5ZM11,7v-1h2c.55225,0,1-.44727,1-1,0-1.10254.89697-2,2-2s2,.89746,2,2c0,.55273.44775,1,1,1h2v2h-10v-1ZM16,27.125h-6c-.62109,0-1.125-.50391-1.125-1.125s.50391-1.125,1.125-1.125h6c.62109,0,1.125.50391,1.125,1.125s-.50391,1.125-1.125,1.125ZM22,21.125h-12c-.62109,0-1.125-.50391-1.125-1.125s.50391-1.125,1.125-1.125h12c.62109,0,1.125.50391,1.125,1.125s-.50391,1.125-1.125,1.125ZM22,15.125h-12c-.62109,0-1.125-.50391-1.125-1.125s.50391-1.125,1.125-1.125h12c.62109,0,1.125.50391,1.125,1.125s-.50391,1.125-1.125,1.125Z"/></g></svg>

<svg xmlns="http://www.w3.org/2000/svg" viewBox="0 0 32 32">
  <path d="M25.5 6H23v-.5c0-.827-.673-1.5-1.5-1.5h-1.626C19.429 2.276 17.861 1 16 1s-3.428 1.276-3.874 3H10.5C9.673 4 9 4.673 9 5.5V6H6.5C5.673 6 5 6.673 5 7.5v22c0 .827.673 1.5 1.5 1.5h19c.827 0 1.5-.673 1.5-1.5v-22c0-.827-.673-1.5-1.5-1.5ZM11 7V6h2a1 1 0 0 0 1-1c0-1.103.897-2 2-2s2 .897 2 2a1 1 0 0 0 1 1h2v2H11V7Zm5 20.125h-6a1.125 1.125 0 0 1 0-2.25h6a1.125 1.125 0 0 1 0 2.25Zm6-6H10a1.125 1.125 0 0 1 0-2.25h12a1.125 1.125 0 0 1 0 2.25Zm0-6H10a1.125 1.125 0 0 1 0-2.25h12a1.125 1.125 0 0 1 0 2.25Z"/>
</svg>
